Newaita-dark/.DP/16/weather-windy.svg

<svg xmlns="http://www.w3.org/2000/svg" xmlns:xlink="http://www.w3.org/1999/xlink" width="16px" height="16px" viewBox="0 0 16 16" version="1.1">
<defs>
<radialGradient id="radial0" gradientUnits="userSpaceOnUse" cx="450.908997" cy="189.578995" fx="450.908997" fy="189.578995" r="21.167" gradientTransform="matrix(0,-0.03907,-0.07032,0,21.764999,30.458)">
<stop offset="0" style="stop-color:rgb(0%,0%,0%);stop-opacity:0.314;"/>
<stop offset="0.222" style="stop-color:rgb(0%,0%,0%);stop-opacity:0.275;"/>
<stop offset="1" style="stop-color:rgb(0%,0%,0%);stop-opacity:0;"/>
</radialGradient>
<radialGradient id="radial1" gradientUnits="userSpaceOnUse" cx="450.908997" cy="189.578995" fx="450.908997" fy="189.578995" r="21.167" gradientTransform="matrix(0,0.03907,0.07032,0,-4.566,-5.103)">
<stop offset="0" style="stop-color:rgb(0%,0%,0%);stop-opacity:0.314;"/>
<stop offset="0.222" style="stop-color:rgb(0%,0%,0%);stop-opacity:0.275;"/>
<stop offset="1" style="stop-color:rgb(0%,0%,0%);stop-opacity:0;"/>
</radialGradient>
<radialGradient id="radial2" gradientUnits="userSpaceOnUse" cx="450.908997" cy="189.578995" fx="450.908997" fy="189.578995" r="21.167" gradientTransform="matrix(0,-0.03907,0.07032,0,-4.566,30.458)">
<stop offset="0" style="stop-color:rgb(0%,0%,0%);stop-opacity:0.314;"/>
<stop offset="0.222" style="stop-color:rgb(0%,0%,0%);stop-opacity:0.275;"/>
<stop offset="1" style="stop-color:rgb(0%,0%,0%);stop-opacity:0;"/>
</radialGradient>
<radialGradient id="radial3" gradientUnits="userSpaceOnUse" cx="450.908997" cy="189.578995" fx="450.908997" fy="189.578995" r="21.167" gradientTransform="matrix(0,0.03907,-0.07032,0,21.764999,-5.103)">
<stop offset="0" style="stop-color:rgb(0%,0%,0%);stop-opacity:0.314;"/>
<stop offset="0.222" style="stop-color:rgb(0%,0%,0%);stop-opacity:0.275;"/>
<stop offset="1" style="stop-color:rgb(0%,0%,0%);stop-opacity:0;"/>
</radialGradient>
<linearGradient id="linear0" gradientUnits="userSpaceOnUse" x1="1040" y1="1535.118042" x2="1040" y2="295.118011" gradientTransform="matrix(0.00826902,0.000127302,-0.000127302,0.00826902,0,0)">
<stop offset="0" style="stop-color:rgb(69.01961%,74.509805%,77.254903%);stop-opacity:1;"/>
<stop offset="1" style="stop-color:rgb(81.176472%,84.705883%,86.274511%);stop-opacity:1;"/>
</linearGradient>
</defs>
<g id="surface1">
<path style=" stroke:none;fill-rule:nonzero;fill:url(#radial0);" d="M 8.601562 12.675781 L 9.921875 12.675781 L 9.921875 12.015625 L 8.601562 12.015625 Z M 8.601562 12.675781 "/>
<path style=" stroke:none;fill-rule:nonzero;fill:url(#radial1);" d="M 8.601562 12.675781 L 7.277344 12.675781 L 7.277344 13.339844 L 8.601562 13.339844 Z M 8.601562 12.675781 "/>
<path style=" stroke:none;fill-rule:nonzero;fill:url(#radial2);" d="M 8.601562 12.675781 L 7.277344 12.675781 L 7.277344 12.015625 L 8.601562 12.015625 Z M 8.601562 12.675781 "/>
<path style=" stroke:none;fill-rule:nonzero;fill:url(#radial3);" d="M 8.601562 12.675781 L 9.921875 12.675781 L 9.921875 13.339844 L 8.601562 13.339844 Z M 8.601562 12.675781 "/>
<path style=" stroke:none;fill-rule:nonzero;fill:url(#linear0);" d="M 7.441406 2.457031 C 7.003906 2.457031 6.582031 2.628906 6.273438 2.941406 C 5.964844 3.25 5.789062 3.671875 5.789062 4.109375 C 5.789062 4.484375 5.910156 4.824219 6.117188 5.101562 L 3.308594 5.101562 C 3.125 5.101562 2.976562 5.25 2.976562 5.433594 C 2.976562 5.617188 3.125 5.765625 3.308594 5.765625 L 7.441406 5.765625 C 8.359375 5.765625 9.097656 5.027344 9.097656 4.109375 C 9.097656 3.195312 8.359375 2.457031 7.441406 2.457031 Z M 12.570312 2.457031 C 11.652344 2.457031 10.914062 3.195312 10.914062 4.109375 C 10.914062 4.484375 11.039062 4.824219 11.242188 5.101562 L 9.457031 5.101562 C 9.34375 5.363281 9.160156 5.59375 8.933594 5.765625 L 12.238281 5.765625 C 12.273438 5.765625 12.308594 5.757812 12.339844 5.746094 C 12.414062 5.757812 12.492188 5.765625 12.570312 5.765625 C 13.484375 5.765625 14.222656 5.027344 14.222656 4.109375 C 14.222656 3.671875 14.050781 3.25 13.738281 2.941406 C 13.429688 2.628906 13.007812 2.457031 12.570312 2.457031 Z M 5.621094 6.738281 C 5.4375 6.738281 5.289062 6.886719 5.292969 7.070312 C 5.289062 7.253906 5.4375 7.402344 5.621094 7.402344 L 11.242188 7.402344 C 11.027344 7.6875 10.914062 8.039062 10.914062 8.394531 C 10.914062 9.308594 11.652344 10.046875 12.570312 10.046875 C 13.007812 10.046875 13.429688 9.875 13.738281 9.5625 C 14.046875 9.253906 14.222656 8.832031 14.222656 8.394531 C 14.222656 7.476562 13.484375 6.738281 12.570312 6.738281 Z M 1.65625 9.386719 C 1.472656 9.386719 1.324219 9.535156 1.324219 9.71875 C 1.324219 9.898438 1.472656 10.046875 1.65625 10.046875 L 7.277344 10.046875 C 7.0625 10.332031 6.949219 10.679688 6.949219 11.039062 C 6.949219 11.957031 7.683594 12.695312 8.601562 12.695312 C 9.519531 12.695312 10.253906 11.957031 10.253906 11.039062 C 10.253906 10.125 9.519531 9.386719 8.601562 9.386719 Z M 1.65625 9.386719 "/>
<path style=" stroke:none;fill-rule:nonzero;fill:rgb(99.607843%,99.607843%,99.607843%);fill-opacity:0.392;" d="M 7.441406 2.457031 C 7.003906 2.457031 6.582031 2.628906 6.273438 2.941406 C 5.964844 3.25 5.789062 3.671875 5.789062 4.109375 L 5.789062 4.183594 C 5.828125 3.300781 6.558594 2.605469 7.441406 2.605469 C 8.332031 2.605469 9.054688 3.304688 9.09375 4.183594 C 9.09375 4.160156 9.097656 4.136719 9.097656 4.109375 C 9.097656 3.195312 8.359375 2.457031 7.441406 2.457031 Z M 12.570312 2.457031 C 12.121094 2.457031 11.6875 2.640625 11.375 2.964844 C 11.0625 3.292969 10.898438 3.734375 10.917969 4.183594 C 10.957031 3.300781 11.683594 2.601562 12.570312 2.605469 C 13.460938 2.605469 14.183594 3.304688 14.222656 4.183594 L 14.222656 4.109375 C 14.222656 3.671875 14.050781 3.25 13.738281 2.941406 C 13.429688 2.628906 13.007812 2.457031 12.570312 2.457031 Z M 3.308594 5.101562 C 3.207031 5.101562 3.109375 5.148438 3.046875 5.226562 C 2.984375 5.304688 2.960938 5.410156 2.984375 5.507812 C 3.015625 5.355469 3.152344 5.25 3.308594 5.25 L 6.117188 5.25 C 6.082031 5.203125 6.046875 5.152344 6.015625 5.101562 Z M 9.457031 5.101562 C 9.339844 5.363281 9.160156 5.59375 8.933594 5.765625 L 9.105469 5.765625 C 9.253906 5.617188 9.371094 5.445312 9.457031 5.25 L 11.242188 5.25 C 11.207031 5.203125 11.175781 5.152344 11.144531 5.101562 Z M 5.621094 6.738281 C 5.519531 6.738281 5.425781 6.785156 5.363281 6.863281 C 5.300781 6.945312 5.277344 7.046875 5.300781 7.144531 C 5.335938 6.996094 5.46875 6.890625 5.621094 6.890625 L 12.570312 6.890625 C 13.460938 6.890625 14.183594 7.585938 14.222656 8.46875 L 14.222656 8.394531 C 14.222656 7.476562 13.484375 6.738281 12.570312 6.738281 Z M 11.144531 7.550781 C 10.980469 7.828125 10.902344 8.148438 10.917969 8.46875 C 10.933594 8.125 11.050781 7.808594 11.242188 7.550781 Z M 1.65625 9.386719 C 1.554688 9.386719 1.460938 9.433594 1.394531 9.511719 C 1.332031 9.589844 1.308594 9.695312 1.332031 9.792969 C 1.367188 9.640625 1.5 9.535156 1.65625 9.535156 L 8.601562 9.535156 C 9.492188 9.535156 10.214844 10.234375 10.253906 11.113281 L 10.253906 11.039062 C 10.253906 10.125 9.519531 9.386719 8.601562 9.386719 Z M 7.175781 10.199219 C 7.027344 10.453125 6.949219 10.742188 6.949219 11.039062 L 6.949219 11.113281 C 6.964844 10.769531 7.085938 10.453125 7.277344 10.199219 Z M 7.175781 10.199219 "/>
<path style=" stroke:none;fill-rule:nonzero;fill:rgb(0%,0%,0%);fill-opacity:0.235;" d="M 5.789062 4.027344 L 5.789062 4.109375 C 5.789062 4.410156 5.867188 4.695312 6.007812 4.9375 L 6.117188 4.9375 C 5.921875 4.671875 5.808594 4.355469 5.789062 4.027344 Z M 10.917969 4.027344 C 10.914062 4.054688 10.914062 4.082031 10.914062 4.109375 C 10.914062 4.410156 10.996094 4.695312 11.136719 4.9375 L 11.242188 4.9375 C 11.046875 4.675781 10.933594 4.355469 10.917969 4.027344 Z M 9.09375 4.027344 C 9.054688 4.910156 8.324219 5.601562 7.441406 5.597656 L 3.308594 5.597656 C 3.160156 5.597656 3.027344 5.496094 2.988281 5.351562 C 2.964844 5.449219 2.988281 5.554688 3.050781 5.636719 C 3.113281 5.71875 3.207031 5.765625 3.308594 5.765625 L 7.441406 5.765625 C 8.359375 5.765625 9.097656 5.027344 9.097656 4.109375 C 9.097656 4.082031 9.09375 4.054688 9.09375 4.027344 Z M 14.21875 4.027344 C 14.199219 4.492188 13.984375 4.925781 13.625 5.222656 C 13.265625 5.519531 12.800781 5.648438 12.339844 5.582031 C 12.308594 5.59375 12.273438 5.597656 12.238281 5.597656 L 9.121094 5.597656 C 9.0625 5.65625 9 5.714844 8.933594 5.765625 L 12.238281 5.765625 C 12.273438 5.765625 12.308594 5.757812 12.339844 5.746094 C 12.414062 5.757812 12.492188 5.765625 12.570312 5.765625 C 13.484375 5.765625 14.222656 5.027344 14.222656 4.109375 C 14.222656 4.082031 14.222656 4.054688 14.21875 4.027344 Z M 5.300781 6.988281 C 5.296875 7.015625 5.292969 7.042969 5.292969 7.070312 C 5.289062 7.253906 5.4375 7.402344 5.621094 7.402344 L 11.136719 7.402344 C 11.167969 7.34375 11.203125 7.289062 11.242188 7.238281 L 5.621094 7.238281 C 5.46875 7.238281 5.339844 7.132812 5.300781 6.988281 Z M 14.21875 8.3125 C 14.175781 9.191406 13.449219 9.882812 12.570312 9.882812 C 11.6875 9.882812 10.960938 9.191406 10.917969 8.3125 C 10.914062 8.339844 10.914062 8.367188 10.914062 8.394531 C 10.914062 9.308594 11.652344 10.046875 12.570312 10.046875 C 13.007812 10.046875 13.429688 9.875 13.738281 9.5625 C 14.046875 9.253906 14.222656 8.832031 14.222656 8.394531 C 14.222656 8.367188 14.222656 8.339844 14.21875 8.3125 Z M 1.335938 9.632812 C 1.308594 9.730469 1.332031 9.835938 1.394531 9.917969 C 1.457031 10 1.554688 10.046875 1.65625 10.046875 L 7.167969 10.046875 C 7.199219 9.992188 7.238281 9.933594 7.277344 9.882812 L 1.65625 9.882812 C 1.503906 9.886719 1.371094 9.78125 1.335938 9.632812 Z M 10.253906 10.957031 C 10.210938 11.839844 9.484375 12.53125 8.601562 12.527344 C 7.71875 12.53125 6.992188 11.839844 6.949219 10.957031 L 6.949219 11.039062 C 6.949219 11.957031 7.683594 12.695312 8.601562 12.695312 C 9.519531 12.695312 10.253906 11.957031 10.253906 11.039062 Z M 10.253906 10.957031 "/>
<path style=" stroke:none;fill-rule:nonzero;fill:rgb(12.941177%,12.941177%,12.941177%);fill-opacity:1;" d="M 7.441406 2.410156 C 6.5 2.410156 5.742188 3.167969 5.742188 4.109375 C 5.742188 4.460938 5.847656 4.785156 6.027344 5.054688 L 3.308594 5.054688 C 3.113281 5.070312 2.957031 5.234375 2.957031 5.433594 C 2.957031 5.632812 3.113281 5.796875 3.308594 5.8125 L 7.441406 5.8125 C 8.058594 5.828125 8.636719 5.507812 8.949219 4.972656 C 9.261719 4.441406 9.261719 3.78125 8.949219 3.25 C 8.636719 2.714844 8.058594 2.394531 7.441406 2.410156 Z M 12.570312 2.410156 C 11.941406 2.410156 11.367188 2.753906 11.070312 3.308594 C 10.773438 3.859375 10.804688 4.535156 11.15625 5.054688 L 9.457031 5.054688 C 9.4375 5.054688 9.417969 5.066406 9.414062 5.082031 C 9.304688 5.335938 9.128906 5.558594 8.90625 5.726562 C 8.886719 5.738281 8.882812 5.757812 8.886719 5.777344 C 8.894531 5.796875 8.914062 5.8125 8.933594 5.8125 L 12.238281 5.8125 C 12.273438 5.8125 12.308594 5.804688 12.34375 5.796875 C 12.417969 5.804688 12.492188 5.8125 12.570312 5.8125 C 13.511719 5.8125 14.269531 5.050781 14.269531 4.109375 C 14.269531 3.167969 13.511719 2.410156 12.570312 2.410156 Z M 7.441406 2.503906 C 8.328125 2.503906 9.046875 3.222656 9.046875 4.113281 C 9.046875 5 8.328125 5.71875 7.441406 5.71875 L 3.308594 5.71875 C 3.234375 5.71875 3.160156 5.691406 3.109375 5.636719 C 3.054688 5.582031 3.023438 5.511719 3.023438 5.433594 C 3.023438 5.273438 3.148438 5.148438 3.308594 5.148438 L 6.117188 5.148438 C 6.136719 5.148438 6.152344 5.140625 6.160156 5.125 C 6.167969 5.105469 6.164062 5.089844 6.15625 5.074219 C 5.949219 4.796875 5.835938 4.457031 5.835938 4.109375 C 5.835938 3.683594 6.003906 3.273438 6.304688 2.972656 C 6.605469 2.671875 7.015625 2.503906 7.441406 2.503906 Z M 12.570312 2.503906 C 12.996094 2.503906 13.40625 2.671875 13.707031 2.972656 C 14.007812 3.273438 14.175781 3.683594 14.175781 4.109375 C 14.175781 4.574219 13.976562 5.019531 13.625 5.324219 C 13.273438 5.628906 12.808594 5.769531 12.347656 5.703125 C 12.339844 5.699219 12.332031 5.699219 12.324219 5.703125 C 12.296875 5.710938 12.265625 5.71875 12.238281 5.71875 L 9.0625 5.71875 C 9.242188 5.558594 9.386719 5.367188 9.484375 5.148438 L 11.242188 5.148438 C 11.261719 5.148438 11.277344 5.140625 11.285156 5.125 C 11.292969 5.105469 11.292969 5.089844 11.28125 5.074219 C 11.082031 4.804688 10.960938 4.472656 10.960938 4.109375 C 10.960938 3.21875 11.679688 2.503906 12.570312 2.503906 Z M 5.621094 6.691406 C 5.410156 6.691406 5.242188 6.863281 5.246094 7.070312 C 5.246094 7.28125 5.414062 7.449219 5.621094 7.449219 L 11.15625 7.449219 C 10.804688 7.96875 10.773438 8.640625 11.066406 9.195312 C 11.363281 9.75 11.941406 10.09375 12.570312 10.09375 C 13.511719 10.09375 14.269531 9.335938 14.269531 8.394531 C 14.269531 7.453125 13.511719 6.691406 12.570312 6.691406 Z M 5.621094 6.785156 L 12.570312 6.785156 C 13.460938 6.785156 14.175781 7.503906 14.175781 8.394531 C 14.175781 8.820312 14.007812 9.230469 13.707031 9.53125 C 13.40625 9.832031 12.996094 10 12.570312 10 C 11.679688 10 10.960938 9.285156 10.960938 8.394531 C 10.960938 8.03125 11.082031 7.699219 11.28125 7.429688 C 11.292969 7.414062 11.292969 7.398438 11.285156 7.378906 C 11.277344 7.363281 11.261719 7.355469 11.242188 7.355469 L 5.621094 7.355469 C 5.546875 7.355469 5.472656 7.324219 5.421875 7.273438 C 5.367188 7.21875 5.339844 7.144531 5.339844 7.070312 C 5.339844 6.914062 5.464844 6.785156 5.621094 6.785156 Z M 1.65625 9.339844 C 1.449219 9.339844 1.277344 9.507812 1.277344 9.71875 C 1.277344 9.925781 1.449219 10.09375 1.65625 10.09375 L 7.1875 10.09375 C 6.84375 10.617188 6.808594 11.285156 7.105469 11.839844 C 7.402344 12.390625 7.976562 12.738281 8.601562 12.742188 C 9.542969 12.742188 10.300781 11.980469 10.300781 11.039062 C 10.300781 10.097656 9.542969 9.339844 8.601562 9.339844 Z M 1.65625 9.433594 L 8.601562 9.433594 C 9.027344 9.433594 9.4375 9.601562 9.738281 9.902344 C 10.039062 10.203125 10.207031 10.613281 10.207031 11.039062 C 10.207031 11.929688 9.492188 12.648438 8.601562 12.648438 C 7.710938 12.648438 6.996094 11.929688 6.996094 11.039062 C 6.996094 10.675781 7.113281 10.34375 7.3125 10.074219 C 7.324219 10.0625 7.328125 10.042969 7.320312 10.027344 C 7.3125 10.011719 7.296875 10 7.277344 10 L 1.65625 10 C 1.582031 10 1.507812 9.972656 1.453125 9.917969 C 1.402344 9.867188 1.371094 9.792969 1.371094 9.71875 C 1.371094 9.558594 1.496094 9.433594 1.65625 9.433594 Z M 1.65625 9.433594 "/>
</g>
</svg>

<svg xmlns="http://www.w3.org/2000/svg" width="16pt" height="16pt" viewBox="0 0 16 16"><defs><radialGradient id="a" gradientUnits="userSpaceOnUse" cx="450.909" cy="189.579" fx="450.909" fy="189.579" r="21.167" gradientTransform="matrix(0 -.03907 -.07032 0 21.765 30.458)"><stop offset="0" stop-opacity=".314"/><stop offset=".222" stop-opacity=".275"/><stop offset="1" stop-opacity="0"/></radialGradient><radialGradient id="b" gradientUnits="userSpaceOnUse" cx="450.909" cy="189.579" fx="450.909" fy="189.579" r="21.167" gradientTransform="matrix(0 .03907 .07032 0 -4.566 -5.103)"><stop offset="0" stop-opacity=".314"/><stop offset=".222" stop-opacity=".275"/><stop offset="1" stop-opacity="0"/></radialGradient><radialGradient id="c" gradientUnits="userSpaceOnUse" cx="450.909" cy="189.579" fx="450.909" fy="189.579" r="21.167" gradientTransform="matrix(0 -.03907 .07032 0 -4.566 30.458)"><stop offset="0" stop-opacity=".314"/><stop offset=".222" stop-opacity=".275"/><stop offset="1" stop-opacity="0"/></radialGradient><radialGradient id="d" gradientUnits="userSpaceOnUse" cx="450.909" cy="189.579" fx="450.909" fy="189.579" r="21.167" gradientTransform="matrix(0 .03907 -.07032 0 21.765 -5.103)"><stop offset="0" stop-opacity=".314"/><stop offset=".222" stop-opacity=".275"/><stop offset="1" stop-opacity="0"/></radialGradient><linearGradient id="e" gradientUnits="userSpaceOnUse" x1="1040" y1="1535.118" x2="1040" y2="295.118" gradientTransform="rotate(.882) scale(.00827)"><stop offset="0" stop-color="#b0bec5"/><stop offset="1" stop-color="#cfd8dc"/></linearGradient></defs><path d="M8.602 12.676h1.32v-.66h-1.32zm0 0" fill="url(#a)"/><path d="M8.602 12.676H7.277v.664h1.325zm0 0" fill="url(#b)"/><path d="M8.602 12.676H7.277v-.66h1.325zm0 0" fill="url(#c)"/><path d="M8.602 12.676h1.32v.664h-1.32zm0 0" fill="url(#d)"/><path d="M7.441 2.457A1.65 1.65 0 0 0 5.79 4.109c0 .375.121.715.328.993H3.31a.332.332 0 1 0 0 .664H7.44c.918 0 1.657-.739 1.657-1.657 0-.914-.739-1.652-1.657-1.652zm5.13 0c-.919 0-1.657.738-1.657 1.652 0 .375.125.715.328.993H9.457a1.683 1.683 0 0 1-.523.664h3.304c.035 0 .07-.008.102-.02.074.012.152.02.23.02.914 0 1.653-.739 1.653-1.657a1.65 1.65 0 0 0-1.653-1.652zM5.62 6.738a.33.33 0 0 0-.328.332.33.33 0 0 0 .328.332h5.621a1.67 1.67 0 0 0-.328.993c0 .914.738 1.652 1.656 1.652a1.65 1.65 0 0 0 1.653-1.652c0-.918-.739-1.657-1.653-1.657zM1.656 9.387a.332.332 0 0 0-.332.332c0 .18.149.328.332.328h5.621a1.653 1.653 0 0 0-.328.992c0 .918.735 1.656 1.653 1.656s1.652-.738 1.652-1.656c0-.914-.734-1.652-1.652-1.652zm0 0" fill="url(#e)"/><path d="M7.441 2.457A1.65 1.65 0 0 0 5.79 4.109v.075a1.652 1.652 0 0 1 1.652-1.579c.891 0 1.614.7 1.653 1.579 0-.024.004-.047.004-.075 0-.914-.739-1.652-1.657-1.652zm5.13 0a1.651 1.651 0 0 0-1.653 1.727 1.649 1.649 0 0 1 1.652-1.579c.89 0 1.614.7 1.653 1.579v-.075a1.65 1.65 0 0 0-1.653-1.652zM3.308 5.102a.332.332 0 0 0-.325.406.331.331 0 0 1 .325-.258h2.808a1.987 1.987 0 0 1-.101-.148zm6.148 0a1.683 1.683 0 0 1-.523.664h.171c.149-.149.266-.32.352-.516h1.785a1.946 1.946 0 0 1-.097-.148zM5.621 6.738a.33.33 0 0 0-.32.407.33.33 0 0 1 .32-.254h6.95c.89 0 1.613.695 1.652 1.578v-.074c0-.918-.739-1.657-1.653-1.657zm5.524.813a1.664 1.664 0 0 0-.227.918c.016-.344.133-.66.324-.918zM1.656 9.387a.332.332 0 0 0-.324.406.335.335 0 0 1 .324-.258h6.946c.89 0 1.613.7 1.652 1.578v-.074c0-.914-.734-1.652-1.652-1.652zm5.52.812a1.647 1.647 0 0 0-.227.84v.074c.016-.343.137-.66.328-.914zm0 0" fill="#fefefe" fill-opacity=".392"/><path d="M5.79 4.027v.082c0 .301.077.586.218.829h.11a1.682 1.682 0 0 1-.329-.91zm5.128 0c-.004.028-.004.055-.004.082 0 .301.082.586.223.829h.105a1.647 1.647 0 0 1-.324-.91zm-1.824 0a1.647 1.647 0 0 1-1.653 1.57H3.31a.328.328 0 0 1-.32-.245.332.332 0 0 0 .32.414H7.44c.918 0 1.657-.739 1.657-1.657 0-.027-.004-.054-.004-.082zm5.125 0a1.644 1.644 0 0 1-1.88 1.555.291.291 0 0 1-.1.016H9.12a1.917 1.917 0 0 1-.187.168h3.304c.035 0 .07-.008.102-.02.074.012.152.02.23.02.914 0 1.653-.739 1.653-1.657 0-.027 0-.054-.004-.082zM5.3 6.988a.583.583 0 0 0-.008.082.33.33 0 0 0 .328.332h5.516c.031-.058.066-.113.105-.164h-5.62a.334.334 0 0 1-.321-.25zm8.918 1.324a1.647 1.647 0 0 1-1.649 1.57 1.65 1.65 0 0 1-1.652-1.57c-.004.028-.004.055-.004.083 0 .914.738 1.652 1.656 1.652a1.65 1.65 0 0 0 1.653-1.652c0-.028 0-.055-.004-.082zM1.336 9.633a.33.33 0 0 0 .32.414h5.512c.031-.054.07-.112.11-.163H1.655a.327.327 0 0 1-.32-.25zm8.918 1.325a1.65 1.65 0 0 1-1.652 1.57 1.65 1.65 0 0 1-1.653-1.57v.082c0 .918.735 1.656 1.653 1.656s1.652-.738 1.652-1.656v-.082zm0 0" fill-opacity=".235"/><path d="M7.441 2.41c-.941 0-1.699.758-1.699 1.7 0 .35.106.675.285.945H3.31a.38.38 0 0 0 0 .758H7.44a1.702 1.702 0 1 0 0-3.403zm5.13 0a1.699 1.699 0 0 0-1.415 2.645H9.457c-.02 0-.039.011-.043.027a1.62 1.62 0 0 1-.508.645c-.02.011-.023.03-.02.05.009.02.028.035.048.035h3.304c.035 0 .07-.007.106-.015.074.008.148.016.226.016.942 0 1.7-.762 1.7-1.704 0-.941-.758-1.699-1.7-1.699zm-5.13.094a1.607 1.607 0 1 1 0 3.215H3.31a.284.284 0 0 1-.286-.285c0-.16.125-.286.286-.286h2.808c.02 0 .035-.007.043-.023.008-.02.004-.035-.004-.05a1.59 1.59 0 0 1-.32-.966A1.6 1.6 0 0 1 7.44 2.504zm5.13 0a1.6 1.6 0 0 1 1.605 1.605 1.604 1.604 0 0 1-1.828 1.594.025.025 0 0 0-.024 0 .305.305 0 0 1-.086.016H9.063c.18-.16.324-.352.421-.57h1.758c.02 0 .035-.008.043-.024.008-.02.008-.035-.004-.05-.199-.27-.32-.602-.32-.966 0-.89.719-1.605 1.61-1.605zM5.62 6.69a.378.378 0 0 0-.375.38c0 .21.168.378.375.378h5.535a1.699 1.699 0 0 0 1.414 2.645c.942 0 1.7-.758 1.7-1.7 0-.94-.758-1.703-1.7-1.703zm0 .094h6.95c.89 0 1.605.719 1.605 1.61A1.6 1.6 0 0 1 12.57 10c-.89 0-1.61-.715-1.61-1.605 0-.364.122-.696.321-.965.012-.016.012-.032.004-.051-.008-.016-.023-.024-.043-.024h-5.62a.281.281 0 0 1-.282-.285c0-.156.125-.285.281-.285zM1.656 9.34a.377.377 0 1 0 0 .754h5.532a1.706 1.706 0 0 0 1.414 2.648c.941 0 1.699-.762 1.699-1.703 0-.941-.758-1.7-1.7-1.7zm0 .094h6.946a1.6 1.6 0 0 1 1.605 1.605c0 .89-.715 1.61-1.605 1.61-.891 0-1.606-.72-1.606-1.61 0-.363.117-.695.316-.965a.042.042 0 0 0 .008-.047.053.053 0 0 0-.043-.027h-5.62a.281.281 0 0 1-.286-.281c0-.16.125-.285.285-.285zm0 0" fill="#212121"/></svg>
